packages/foundations/assets/icons/functional/images/audio & video/play_28.svg

<svg width="28" height="28" viewBox="0 0 28 28" fill="none" xmlns="http://www.w3.org/2000/svg">
<g clip-path="url(#clip0_184_358)">
<path fill-rule="evenodd" clip-rule="evenodd" d="M9.1605 6.125C9.5155 6.125 9.8705 6.235 10.1715 6.425L19.8245 12.578C20.2895 12.906 20.5625 13.426 20.5625 14C20.5625 14.574 20.2895 15.094 19.8245 15.422L10.1715 21.574C9.8715 21.766 9.5155 21.875 9.1605 21.875C8.2035 21.875 7.4375 21.082 7.4375 20.125V7.875C7.4375 6.918 8.2035 6.125 9.1605 6.125ZM9.1605 7.875L9.1875 20.125L18.8125 14L9.1605 7.875Z" fill="#1A1C1F"/>
</g>
<defs>
<clipPath id="clip0_184_358">
<rect width="28" height="28" fill="white"/>
</clipPath>
</defs>
</svg>

<svg xmlns="http://www.w3.org/2000/svg" width="28" height="28" fill="none"><g clip-path="url(#a)"><path fill="#1A1C1F" fill-rule="evenodd" d="M9.16 6.125c.355 0 .71.11 1.011.3l9.654 6.153c.465.328.738.848.738 1.422s-.273 1.094-.738 1.422l-9.653 6.152c-.3.192-.657.301-1.011.301-.957 0-1.723-.793-1.723-1.75V7.875c0-.957.766-1.75 1.723-1.75m0 1.75.027 12.25L18.813 14z" clip-rule="evenodd"/></g><defs><clipPath id="a"><path fill="#fff" d="M0 0h28v28H0z"/></clipPath></defs></svg>
